X:1
T:Bromley (Clark), LM
T:Jeremiah Clark, 1700
T:Bromley (Clark), LM
T:Public Domain
C:Jeremiah Clark, 1700
Z:Public Domain
%%score ( 1 2 ) ( 3 4 )
L:1/8
M:3/4
K:F
V:1 treble 
V:2 treble 
V:3 bass 
V:4 bass 
V:1
 [CF]2 | [FA]4 (BG) | [CF]2 [FA]2 [Fc]2 | (c3 d) (cB) | [GB]2 [FA]2 [CF]2 | [B,B-]2 [F-B]2 [FA]2 | %6
 [Fd]4 [Fc]2 | c2 B2 [FA]2 | [EG]4 [EG]2 | [F_A]4 [FA]2 | [F_d]4 [Fc]2 | (F>G _A2) (GF) | %12
 (F2 E2) [Fd]2 | (F2 E2) [_Ec]2 | [DF]2 [EB]2 [FA]2 | (AG) [CF]2 [CE]2 | [CF]4 |] %17
V:2
 x2 | x4 F2 | x6 | G4 G2 | x6 | x6 | x6 | G4 x2 | x6 | x6 | x6 | =B4 B2 | c4 x2 | G4 x2 | x6 | %15
 D2 x4 | x4 |] %17
V:3
 [F,A,]2 | [F,C]4 (DB,) | (A,2 C2) [F,A,]2 | [E,G,]4 [E,C]2 | [F,C]4 (F,E,) | (F,3 G,) [C,A,]2 | %6
 (B,,2 B,2) [A,C]2 | [E,C]4 [F,C]2 | [C,C]4 [C,C]2 | [F,C]4 [F,C]2 | [B,,B,]4 [C,_A,]2 | %11
 (_A,>G, F,2) [=D,F,]2 | [C,G,]4 [=B,,D]2 | (C,2 C2) [A,C]2 | (B,2 G,2) [F,C]2 | %15
 [B,,B,]2 [C,A,]2 [C,G,]2 | [F,,A,]4 |] %17
V:4
 x2 | x4 F,2 | F,4 x2 | x6 | x4 A,2 | D,4 x2 | B,4 x2 | x6 | x6 | x6 | x6 | _D,4 x2 | x6 | C4 x2 | %14
 B,4 x2 | x6 | x4 |] %17

